X:265
T:Douce Dame Jolie
M:3/4
Q:3/4=72
L:1/4
K:C
V:1
|: F2G | F2E | DCD | E2z | D2D | C2D | F2D |
F2G | F2E | DCD | E2z | C2D | F2E | D2z !fine! ::
V:2 octave=-1
|: fe2  | dc2 | G2F | c2z | dc_B | A_B2 | A2d |
c2e | fd2 | B2B | G2z | c2d | f2e | d2z ::
V:3 octave=-1
|: A2B | A2B | BAB | G2z | B2G | EAG | A/G/AF |
A2c | A2G | G3 | c3- | c3 | A3- | A2z ::
V:4
|: F,2E, | F,2D, | G,/F,/E,D, | C,2z | G,,2G,, | A,,2G, | F,3 |
F,2C, | D,2G,, | B,,E,D, | C,3- | C,3 | D,3- | D,2z ::
V:1
D2A | A2G | A/G/AF | E2z | F/E/FD | E2F | G2F |
E2z | F2D | CDD/E/ | D2C | D2z :| F2G | F2E |
DCD | E2z | D2D | C2D | F2D | F2G |
F2E | DCD | E2z | C2D | F2E | D2z |]
V:2
d2c | fe2 | d2f | c3 | c2d | ed2 | c2B |
c/B/c2 | d2d | G2A | B2c | A/B/A2 :| fed | c2c |
G2G | c2z | dc_B | A2B | cd2 | cde |
fed | B2B | G2z | c2d | f2e | d2z |]
V:3
z3 | D2A | A2A | A/G/A2 | A2F | G2A | EG2 |
G3 | A2B | cBA | GA2 | A3 :| A2B | A2G |
BAB | G2z | B2G | EAG | A/G/AF | c2c |
A2G | G3 | c3- | c3 A3- | A2z |]
V:4
D,3 | D,2G, | F,2F,, | A,,3 | F,2D, | C,2A,, | C,D,2 |
C,3 | F,,2G,, | E,2D, | G,E,2 | D,3 :| F,2F,, | F,2C, |
G,E,D, | C,2z | G,,2G,, | A,,2E, | D,2D, | A,,2C, |
F,2D, | B,,E,D, | C,3- | C,3 | D,3- | D,2z |]






